src/images/redux.svg

<svg width="97" height="97" viewBox="0 0 97 97" fill="none" xmlns="http://www.w3.org/2000/svg">
<g clip-path="url(#clip0_24_971)">
<path d="M67.2108 66.5863C70.7903 66.2158 73.5059 63.13 73.3824 59.4265C73.2593 55.7235 70.1731 52.7608 66.47 52.7608H66.2233C62.3964 52.8843 59.4341 56.0937 59.5576 59.9202C59.6811 61.772 60.4215 63.3766 61.5325 64.4876C57.3357 72.7583 50.917 78.8068 41.289 83.8679C34.7468 87.3243 27.958 88.5587 21.1691 87.6948C15.6143 86.9541 11.2941 84.4855 8.57806 80.4115C4.62834 74.363 4.25814 67.8204 7.591 61.2782C9.93643 56.5874 13.6391 53.131 15.9845 51.4028C15.4908 49.7981 14.7501 47.0825 14.3799 45.1077C-3.51853 58.0689 -1.66681 75.5975 3.76443 83.8679C7.83767 90.0403 16.1081 93.8668 25.2424 93.8668C27.7109 93.8668 30.1795 93.6198 32.6485 93.0029C48.4485 89.9167 60.4219 80.535 67.2108 66.5863ZM88.9357 51.2797C79.5544 40.2933 65.7296 34.2448 49.9296 34.2448H47.9548C46.8438 32.0229 44.4984 30.5414 41.9063 30.5414H41.6592C37.833 30.6649 34.8707 33.8742 34.9939 37.7012C35.1174 41.4042 38.2032 44.3669 41.9063 44.3669H42.1529C44.8686 44.2434 47.214 42.5152 48.2014 40.1698H50.4233C59.8047 40.1698 68.6919 42.8854 76.7156 48.1935C82.8873 52.2671 87.3311 57.5752 89.7996 63.9939C91.898 69.1784 91.7745 74.2395 89.5526 78.5602C86.0966 85.1023 80.2952 88.6823 72.642 88.6823C67.7045 88.6823 63.014 87.2007 60.5451 86.0898C59.1874 87.3243 56.7185 89.2991 54.9903 90.534C60.2984 93.0025 65.7296 94.3605 70.9138 94.3605C82.7637 94.3605 91.5278 87.818 94.8607 81.2758C98.4402 74.116 98.1932 61.772 88.9357 51.2797ZM26.2298 68.6843C26.3533 72.3878 29.4391 75.3501 33.1422 75.3501H33.3892C37.2158 75.2269 40.1781 72.0172 40.0546 68.1906C39.9314 64.4872 36.8452 61.5249 33.1422 61.5249H32.8955C32.6485 61.5249 32.2779 61.5249 32.0316 61.6481C26.9705 53.2541 24.8722 44.1198 25.6129 34.2444C26.1063 26.8379 28.5752 20.4189 32.8955 15.1108C36.475 10.5434 43.3874 8.32154 48.0783 8.1984C61.1623 7.95135 66.7167 24.2455 67.0872 30.788C68.6919 31.1582 71.4075 32.0225 73.2592 32.6397C71.7777 12.6426 59.4341 2.27344 47.5846 2.27344C36.475 2.27344 26.2298 10.2972 22.1562 22.1475C16.4783 37.9478 20.1813 53.131 27.0937 65.1048C26.4768 65.9687 26.1063 67.3263 26.2298 68.6843Z" fill="url(#paint0_linear_24_971)"/>
</g>
<defs>
<linearGradient id="paint0_linear_24_971" x1="-1.58239e-05" y1="60.5044" x2="81.0764" y2="0.798455" gradientUnits="userSpaceOnUse">
<stop offset="0.00833321" stop-color="#5C03BC"/>
<stop offset="0.53125" stop-color="#E536AB"/>
<stop offset="0.898958" stop-color="#F4E5F0"/>
</linearGradient>
<clipPath id="clip0_24_971">
<rect width="97" height="97" fill="white"/>
</clipPath>
</defs>
</svg>

<svg xmlns="http://www.w3.org/2000/svg" width="97" height="97" fill="none"><g clip-path="url(#a)"><path fill="url(#b)" d="M67.21 66.586c3.58-.37 6.296-3.456 6.172-7.16-.123-3.703-3.209-6.665-6.912-6.665h-.247c-3.827.123-6.789 3.333-6.665 7.16.123 1.851.864 3.456 1.974 4.567-4.196 8.27-10.615 14.319-20.243 19.38-6.542 3.456-13.331 4.69-20.12 3.827-5.555-.74-9.875-3.21-12.59-7.283-3.95-6.049-4.32-12.592-.988-19.134 2.345-4.69 6.048-8.147 8.393-9.875-.493-1.605-1.234-4.32-1.604-6.295-17.899 12.96-16.047 30.49-10.616 38.76 4.074 6.172 12.344 9.999 21.478 9.999 2.469 0 4.938-.247 7.406-.864 15.8-3.086 27.774-12.468 34.563-26.417ZM88.937 51.28C79.554 40.293 65.73 34.245 49.93 34.245h-1.975c-1.111-2.222-3.457-3.704-6.049-3.704h-.247c-3.826.124-6.788 3.333-6.665 7.16.123 3.703 3.21 6.666 6.912 6.666h.247c2.716-.124 5.061-1.852 6.048-4.197h2.222c9.382 0 18.269 2.715 26.293 8.023 6.171 4.074 10.615 9.382 13.084 15.8 2.098 5.185 1.975 10.247-.247 14.567-3.456 6.542-9.258 10.122-16.911 10.122-4.938 0-9.628-1.481-12.097-2.592-1.358 1.234-3.827 3.21-5.555 4.444 5.308 2.468 10.74 3.826 15.924 3.826 11.85 0 20.614-6.542 23.947-13.084 3.58-7.16 3.332-19.504-5.925-29.996ZM26.23 68.684c.123 3.704 3.21 6.666 6.912 6.666h.247c3.827-.123 6.79-3.333 6.666-7.16-.124-3.703-3.21-6.665-6.913-6.665h-.247c-.247 0-.617 0-.863.123-5.061-8.394-7.16-17.528-6.42-27.404.494-7.406 2.963-13.825 7.284-19.133 3.579-4.568 10.491-6.79 15.182-6.913 13.084-.247 18.639 16.047 19.01 22.59 1.604.37 4.32 1.235 6.171 1.852C71.778 12.643 59.434 2.273 47.585 2.273c-11.11 0-21.355 8.024-25.429 19.875-5.678 15.8-1.975 30.983 4.938 42.957-.617.864-.988 2.221-.864 3.58Z"/></g><defs><linearGradient id="b" x1="0" x2="81.076" y1="60.504" y2=".798" gradientUnits="userSpaceOnUse"><stop offset=".008" stop-color="#5C03BC"/><stop offset=".531" stop-color="#E536AB"/><stop offset=".899" stop-color="#F4E5F0"/></linearGradient><clipPath id="a"><path fill="#fff" d="M0 0h97v97H0z"/></clipPath></defs></svg>
